icon/pk/eyebrow.svg

<svg viewBox="0 0 48 48" fill="none" xmlns="http://www.w3.org/2000/svg" height="1em" width="1em">
  <path d="M24 40C33.9411 40 42 30 42 30C42 30 33.9411 20 24 20C14.0589 20 6 30 6 30C6 30 14.0589 40 24 40Z" fill="#2F88FF" stroke="black" stroke-width="4" stroke-linejoin="round"/>
  <path d="M24 34C26.2091 34 28 32.2091 28 30C28 27.7909 26.2091 26 24 26C21.7909 26 20 27.7909 20 30C20 32.2091 21.7909 34 24 34Z" fill="#43CCF8" stroke="white" stroke-width="4" stroke-linejoin="round"/>
  <path d="M28.0001 6C21 6 10.0001 9.5 7.00005 12C4.00005 14.5 5.99999 19 8.00005 18C10.0001 17 23.2001 12.2 28.0001 11C32.8001 9.8 39.6667 11.8333 42 13C39.6667 11 35.0001 6 28.0001 6Z" fill="#2F88FF" stroke="black" stroke-width="4" stroke-linejoin="round"/>
</svg>

<svg width="48" height="48" fill="none" xmlns="http://www.w3.org/2000/svg"><path d="M24 40c9.941 0 18-10 18-10s-8.059-10-18-10S6 30 6 30s8.059 10 18 10Z" fill="#2F88FF" stroke="#000" stroke-width="4" stroke-linejoin="round"/><path d="M24 34a4 4 0 1 0 0-8 4 4 0 0 0 0 8Z" fill="#43CCF8" stroke="#fff" stroke-width="4" stroke-linejoin="round"/><path d="M28 6c-7 0-18 3.5-21 6s-1 7 1 6 15.2-5.8 20-7c4.8-1.2 11.667.833 14 2-2.333-2-7-7-14-7Z" fill="#2F88FF" stroke="#000" stroke-width="4" stroke-linejoin="round"/></svg>
